packages/foundations/assets/icons/functional/images/transportation/boat_24_inverted.svg

<svg width="24" height="24" viewBox="0 0 24 24" fill="none" xmlns="http://www.w3.org/2000/svg">
<g clip-path="url(#clip0_2214_6672)">
<path fill-rule="evenodd" clip-rule="evenodd" d="M12.061 16.2829C12.3748 16.5486 12.7197 16.765 12.8801 16.8597C13.3801 17.155 13.9809 17.4126 14.4989 17.4125C15.0169 17.4125 15.5986 17.1938 16.1667 16.8592C16.435 16.7012 16.6073 16.5943 16.9894 16.2817C17.3716 15.9691 17.89 16.0084 18.1975 16.3698C18.3285 16.5238 18.5886 16.7796 18.9335 17.035C19.4131 17.3904 20.0296 17.6655 20.499 17.6655C20.9685 17.6655 21.349 18.046 21.349 18.5155C21.349 18.9849 20.9685 19.3655 20.499 19.3655C19.4918 19.3655 18.4838 18.9241 17.475 18.0415C16.3613 18.7785 15.3575 19.1352 14.4636 19.1115C13.5697 19.0878 12.5765 18.7111 11.484 17.9815C10.3469 18.7356 9.32387 19.1127 8.41503 19.1127C7.50618 19.1127 6.52652 18.7573 5.47603 18.0465C4.44466 18.9258 3.45232 19.3655 2.49903 19.3655C2.03046 19.3655 1.64893 18.9849 1.64893 18.5155C1.64893 18.0821 2.00046 17.6655 2.49903 17.6655C2.96811 17.6655 3.475 17.434 4.02187 17.0327C4.37503 16.7736 4.64786 16.5135 4.7893 16.3549C5.10708 15.9985 5.6428 15.9818 6.00454 16.3C6.36628 16.6182 6.57045 16.7428 6.77328 16.8674C7.33424 17.2119 7.91591 17.4125 8.41503 17.4125C8.91414 17.4125 9.55276 17.1443 10.0756 16.8506C10.2313 16.7631 10.6383 16.5267 10.9605 16.2629C11.2828 15.9991 11.7473 16.0172 12.061 16.2829ZM10.3571 4.66547C11.5764 4.45778 13.3292 5.32126 14.2835 6.47889C14.6737 6.9523 14.9623 7.42147 15.1489 7.82299L21.3392 6.68065C21.9984 6.55438 22.5221 7.20011 22.2986 7.80514L19.2787 13.9225C19.0607 14.4067 18.4214 14.5882 18.0365 14.2839C17.7799 14.081 17.5864 13.9102 17.456 13.7715C16.4767 14.8342 15.491 15.3656 14.499 15.3656C13.5071 15.3656 12.5071 14.8429 11.499 13.7975C10.4637 14.8426 9.46385 15.3653 8.49961 15.3656C7.53537 15.3657 6.53484 14.8433 5.49803 13.7985C4.47566 14.8432 3.476 15.3656 2.49903 15.3656C2.03742 15.3656 1.64903 14.9521 1.65565 14.6221L1.64903 11.0155C1.64903 10.6423 1.88713 10.2912 2.23883 10.2062C2.4733 10.1496 3.4203 9.97337 5.07981 9.67756C5.57427 9.33124 5.86672 7.93055 5.65671 6.37952C5.60109 5.96872 5.87077 5.52541 6.34127 5.43024L10.3571 4.66547ZM18.9883 9.85051C18.9042 9.42542 18.5167 9.13755 18.0953 9.16744L7.77671 11.2088C7.37574 11.3416 7.12705 11.7553 7.21115 12.1804C7.29524 12.6055 7.68274 12.8934 8.10407 12.8635L18.4227 10.8221C18.8237 10.6893 19.0724 10.2756 18.9883 9.85051ZM7.41703 6.95647C7.46367 7.80514 7.39321 8.62911 7.21341 9.28369C11.3306 8.52438 13.3892 8.14473 13.3892 8.14473C12.5587 6.8054 11.3794 6.23821 10.5221 6.36747L7.41703 6.95647Z" fill="#1A1C1F"/>
</g>
<defs>
<clipPath id="clip0_2214_6672">
<rect width="24" height="24" fill="white"/>
</clipPath>
</defs>
</svg>

<svg xmlns="http://www.w3.org/2000/svg" width="24" height="24" fill="none"><g clip-path="url(#a)"><path fill="#1A1C1F" fill-rule="evenodd" d="M12.061 16.283c.314.266.659.482.82.577.5.295 1.1.553 1.618.553s1.1-.22 1.668-.554c.268-.158.44-.265.822-.577.383-.313.901-.274 1.209.088.13.154.39.41.735.665.48.355 1.097.63 1.566.63a.85.85 0 1 1 0 1.7q-1.51 0-3.024-1.323-1.671 1.104-3.011 1.07t-2.98-1.13q-1.706 1.13-3.069 1.13t-2.939-1.065q-1.547 1.319-2.977 1.319a.85.85 0 0 1 0-1.7c.47 0 .976-.232 1.523-.633.353-.26.626-.52.767-.678.318-.357.854-.373 1.216-.055.361.318.565.443.768.567.561.345 1.143.546 1.642.546.5 0 1.138-.269 1.66-.562a7 7 0 0 0 .886-.588.86.86 0 0 1 1.1.02M10.357 4.665c1.22-.207 2.972.656 3.927 1.814.39.473.678.942.865 1.344l6.19-1.142a.85.85 0 0 1 .96 1.124l-3.02 6.118c-.218.484-.858.665-1.242.36a5.6 5.6 0 0 1-.581-.511q-1.47 1.593-2.957 1.594-1.488 0-3-1.569-1.553 1.568-3 1.569-1.446 0-3.001-1.567-1.533 1.567-2.999 1.567c-.462 0-.85-.414-.843-.744l-.007-3.607c0-.373.238-.724.59-.809q.351-.085 2.84-.528c.495-.347.788-1.747.578-3.298a.86.86 0 0 1 .684-.95zm8.631 5.186a.85.85 0 0 0-.893-.684L7.777 11.21a.85.85 0 0 0 .327 1.655l10.319-2.042a.85.85 0 0 0 .565-.971M7.417 6.956c.047.85-.024 1.673-.204 2.328l6.176-1.14c-.83-1.339-2.01-1.906-2.867-1.777z" clip-rule="evenodd"/></g><defs><clipPath id="a"><path fill="#fff" d="M0 0h24v24H0z"/></clipPath></defs></svg>
